dist/icons/svgs/camera-solid.svg

<svg xmlns="http://www.w3.org/2000/svg" width="24" height="24" fill="currentcolor" class="icon-camera-solid" viewBox="0 0 24 24">
  <path d="M7.82031 4.53906C8.05469 3.79688 8.75781 3.25 9.57812 3.25H14.3828C15.2031 3.25 15.9062 3.79688 16.1406 4.53906L16.5703 5.75H19.5C20.8672 5.75 22 6.88281 22 8.25V18.25C22 19.6562 20.8672 20.75 19.5 20.75H4.5C3.09375 20.75 2 19.6562 2 18.25V8.25C2 6.88281 3.09375 5.75 4.5 5.75H7.39062L7.82031 4.53906ZM12 9.5C10.6328 9.5 9.42188 10.2422 8.71875 11.375C8.05469 12.5469 8.05469 13.9922 8.71875 15.125C9.42188 16.2969 10.6328 17 12 17C13.3281 17 14.5391 16.2969 15.2422 15.125C15.9062 13.9922 15.9062 12.5469 15.2422 11.375C14.5391 10.2422 13.3281 9.5 12 9.5Z"/>
</svg>

<svg xmlns="http://www.w3.org/2000/svg" width="24" height="24" fill="currentColor" class="icon-camera-solid" viewBox="0 0 24 24">
  <path d="M7.82 4.54a1.85 1.85 0 0 1 1.758-1.29h4.805c.82 0 1.523.547 1.758 1.29l.43 1.21H19.5c1.367 0 2.5 1.133 2.5 2.5v10c0 1.406-1.133 2.5-2.5 2.5h-15a2.47 2.47 0 0 1-2.5-2.5v-10c0-1.367 1.094-2.5 2.5-2.5h2.89zM12 9.5c-1.367 0-2.578.742-3.281 1.875-.664 1.172-.664 2.617 0 3.75C9.422 16.297 10.633 17 12 17c1.328 0 2.54-.703 3.242-1.875.664-1.133.664-2.578 0-3.75C14.54 10.242 13.328 9.5 12 9.5"/>
</svg>
